svgs/magic_earth.svg

<?xml version="1.0" encoding="UTF-8" standalone="no"?>
<svg
   width="24"
   height="24"
   viewBox="0 0 24 24"
   fill="none"
   version="1.1"
   id="svg8"
   sodipodi:docname="magic_earth.svg"
   inkscape:version="1.2.1 (9c6d41e410, 2022-07-14, custom)"
   xml:space="preserve"
   xmlns:inkscape="http://www.inkscape.org/namespaces/inkscape"
   xmlns:sodipodi="http://sodipodi.sourceforge.net/DTD/sodipodi-0.dtd"
   xmlns="http://www.w3.org/2000/svg"
   xmlns:svg="http://www.w3.org/2000/svg"><defs
     id="defs12"><inkscape:path-effect
       effect="mirror_symmetry"
       start_point="12,4.7625174"
       end_point="12,20.311892"
       center_point="12,12.537205"
       id="path-effect1443"
       is_visible="true"
       lpeversion="1.2"
       lpesatellites=""
       mode="free"
       discard_orig_path="false"
       fuse_paths="false"
       oposite_fuse="false"
       split_items="false"
       split_open="false"
       link_styles="false" /><inkscape:path-effect
       effect="mirror_symmetry"
       start_point="12,7"
       end_point="12,20.311892"
       center_point="12,13.655946"
       id="path-effect1231"
       is_visible="true"
       lpeversion="1.2"
       lpesatellites=""
       mode="free"
       discard_orig_path="false"
       fuse_paths="false"
       oposite_fuse="false"
       split_items="false"
       split_open="false"
       link_styles="false" /><inkscape:path-effect
       effect="mirror_symmetry"
       start_point="12.049827,6.9953768"
       end_point="12.049827,14.342609"
       center_point="12.030206,10.131109"
       id="path-effect369"
       is_visible="false"
       lpeversion="1.2"
       lpesatellites=""
       mode="vertical"
       discard_orig_path="false"
       fuse_paths="false"
       oposite_fuse="false"
       split_items="false"
       split_open="false"
       link_styles="false" /><inkscape:path-effect
       effect="mirror_symmetry"
       start_point="12.000001,2.1473306"
       end_point="12.000001,21"
       center_point="12.000001,11.573665"
       id="path-effect1795"
       is_visible="true"
       lpeversion="1.2"
       lpesatellites=""
       mode="free"
       discard_orig_path="false"
       fuse_paths="false"
       oposite_fuse="false"
       split_items="false"
       split_open="false"
       link_styles="false" /></defs><sodipodi:namedview
     id="namedview10"
     pagecolor="#ffffff"
     bordercolor="#666666"
     borderopacity="1.0"
     inkscape:pageshadow="2"
     inkscape:pageopacity="0.0"
     inkscape:pagecheckerboard="true"
     showgrid="true"
     inkscape:lockguides="true"
     inkscape:zoom="32"
     inkscape:cx="9.28125"
     inkscape:cy="11.5"
     inkscape:window-width="1920"
     inkscape:window-height="1020"
     inkscape:window-x="0"
     inkscape:window-y="28"
     inkscape:window-maximized="1"
     inkscape:current-layer="svg8"
     inkscape:showpageshadow="0"
     inkscape:deskcolor="#d1d1d1"
     showguides="false"><inkscape:grid
       type="xygrid"
       id="grid829"
       empspacing="1" /></sodipodi:namedview><path
     style="fill:#000000;fill-rule:evenodd;stroke:none;stroke-width:0.05;stroke-opacity:1"
     d="m 12,13.1 c -0.977808,0 -2.3895923,1.288831 -3.0214682,1.288831 -0.7174704,0 -1.6140691,0.06069 -1.3083789,-1.080161 L 11.235947,7.4507363 C 11.373612,7.2122928 11.546003,7 12,7 m 0,1 -2.8391001,4.91676 c -0.1099278,0.190401 -0.00165,0.284568 0.2113721,0.22749 0,0 1.379373,-1.04425 2.627728,-1.04425 m 0,4.4 c 0,-0.596751 -0.452909,-1.05 -1.05,-1.05 0.595955,0 1.05,-0.453057 1.05,-1.05 m 0,5.911892 c 0,-0.931074 -0.704395,-1.638252 -1.636,-1.638252 0.929833,0 1.636,-0.706878 1.636,-1.638252 M 12,4.7625174 c -5.8874438,0.044802 -9.6714414,3.9842965 -9.6714414,7.2667856 0,2.29427 1.1791061,5.328409 5.7832197,6.909901 C 9.1217061,19.28611 9.5384045,17.969414 8.651911,17.637218 5.4730236,16.445993 3.5285586,14.696459 3.5285586,12.027103 3.5285586,6.979483 9.5423518,5.2271037 12,5.2271037 M 12,13.1 c 0.977808,0 2.389592,1.288831 3.021468,1.288831 0.717471,0 1.614069,0.06069 1.308379,-1.080161 L 12.764053,7.4507363 C 12.626388,7.2122928 12.453997,7 12,7 m 0,1 2.8391,4.91676 c 0.109928,0.190401 0.0016,0.284568 -0.211372,0.22749 0,0 -1.379373,-1.04425 -2.627728,-1.04425 m 0,4.4 c 0,-0.596751 0.452909,-1.05 1.05,-1.05 C 12.454045,15.45 12,14.996943 12,14.4 m 0,5.911892 C 12,19.380818 12.704395,18.67364 13.636,18.67364 12.706167,18.67364 12,17.966762 12,17.035388 M 12,4.7625174 c 5.887444,0.044802 9.671441,3.9842965 9.671441,7.2667856 0,2.29427 -1.179106,5.328409 -5.783219,6.909901 -1.009928,0.346906 -1.426626,-0.96979 -0.540133,-1.301986 3.178887,-1.191225 5.123352,-2.940759 5.123352,-5.610115 0,-5.04762 -6.013793,-6.7999993 -8.471441,-6.7999993"
     id="path367"
     sodipodi:nodetypes="ccccccccccccccccssssc"
     inkscape:path-effect="#path-effect1443"
     inkscape:original-d="m 12,13.1 c -0.977808,0 -2.3895923,1.288831 -3.0214682,1.288831 -0.7174704,0 -1.6140691,0.06069 -1.3083789,-1.080161 L 11.235947,7.4507363 C 11.373612,7.2122928 11.546003,7 12,7 m 0,1 -2.8391001,4.91676 c -0.1099278,0.190401 -0.00165,0.284568 0.2113721,0.22749 0,0 1.379373,-1.04425 2.627728,-1.04425 m 0,4.4 c 0,-0.596751 -0.452909,-1.05 -1.05,-1.05 0.595955,0 1.05,-0.453057 1.05,-1.05 m 0,5.911892 c 0,-0.931074 -0.704395,-1.638252 -1.636,-1.638252 0.929833,0 1.636,-0.706878 1.636,-1.638252 M 12,4.7625174 c -5.8874438,0.044802 -9.6714414,3.9842965 -9.6714414,7.2667856 0,2.29427 1.1791061,5.328409 5.7832197,6.909901 C 9.1217061,19.28611 9.5384045,17.969414 8.651911,17.637218 5.4730236,16.445993 3.5285586,14.696459 3.5285586,12.027103 3.5285586,6.979483 9.5423518,5.2271037 12,5.2271037"
     class="UnoptimicedTransforms"
     transform="matrix(1.033972,0,0,1.033972,-0.407664,-0.96311862)" /></svg>

<svg xmlns="http://www.w3.org/2000/svg" xml:space="preserve" width="24" height="24" fill="none" viewBox="0 0 24 24"><path d="M12 13.1c-.978 0-2.39 1.289-3.021 1.289-.718 0-1.615.06-1.309-1.08l3.566-5.858c.138-.239.31-.451.764-.451m0 1-2.84 4.917c-.109.19 0 .284.212.227 0 0 1.38-1.044 2.628-1.044m0 4.4c0-.597-.453-1.05-1.05-1.05A1.03 1.03 0 0 0 12 14.4m0 5.912c0-.931-.704-1.638-1.636-1.638.93 0 1.636-.707 1.636-1.639m0-12.272c-5.887.044-9.671 3.984-9.671 7.266 0 2.295 1.179 5.329 5.783 6.91 1.01.347 1.426-.97.54-1.302-3.179-1.191-5.123-2.94-5.123-5.61 0-5.048 6.013-6.8 8.471-6.8m0 7.873c.978 0 2.39 1.289 3.021 1.289.718 0 1.615.06 1.309-1.08L12.764 7.45C12.626 7.212 12.454 7 12 7m0 1 2.84 4.917c.109.19 0 .284-.212.227 0 0-1.38-1.044-2.628-1.044m0 4.4c0-.597.453-1.05 1.05-1.05A1.03 1.03 0 0 1 12 14.4m0 5.912c0-.931.704-1.638 1.636-1.638-.93 0-1.636-.707-1.636-1.639m0-12.272c5.887.044 9.671 3.984 9.671 7.266 0 2.295-1.179 5.329-5.783 6.91-1.01.347-1.426-.97-.54-1.302 3.179-1.191 5.123-2.94 5.123-5.61 0-5.048-6.013-6.8-8.471-6.8" class="UnoptimicedTransforms" style="fill:#000;fill-rule:evenodd;stroke:none;stroke-width:.05;stroke-opacity:1" transform="translate(-.408 -.963)scale(1.03397)"/></svg>
